images/themes/default/mDockify.svg

<svg height="24" viewBox="0 0 6.35 6.35" width="24" xmlns="http://www.w3.org/2000/svg"><path d="m1.191.661h4.498v4.498h-4.498z" fill="#fff" stroke="#777" stroke-width=".265"/><path d="m1.323 1.19h4.233" fill="#636363" stroke="#777" stroke-width=".794"/><path d="m1.912 2.91h.849m-.849.51h.849m-.849.509h.849m-.849.509h.849" fill="none" stroke="#6e97c4" stroke-width=".148"/><path d="m.661 2.778h3.969v2.91h-3.969z" fill="#fff" stroke="#777" stroke-width=".265"/><path d="m.794 3.44h3.704v2.116h-3.704z" fill="#e6e6e6"/><path d="m.794 2.91h3.704v.794h-3.704z" fill="#bad9ec"/><g fill="none" stroke="#6e97c4" stroke-width=".265"><path d="m1.323 3.307h.794"/><path d="m2.646 3.307h1.323"/><path d="m1.323 4.101h.794"/><path d="m2.646 4.101h1.323"/><path d="m1.323 4.63h.794"/><path d="m2.646 4.63h1.323"/><path d="m1.323 5.16h.794"/><path d="m2.646 5.16h1.323"/></g></svg>

<svg xmlns="http://www.w3.org/2000/svg" width="24" height="24" viewBox="0 0 6.35 6.35"><path fill="#fff" stroke="#777" stroke-width=".265" d="M1.191.661h4.498v4.498H1.191z"/><path d="M1.323 1.19h4.233" fill="#636363" stroke="#777" stroke-width=".794"/><path d="M1.912 2.91h.849M1.912 3.42h.849M1.912 3.929h.849M1.912 4.438h.849" overflow="visible" fill="none" stroke="#6e97c4" stroke-width=".148"/><path fill="#fff" stroke="#777" stroke-width=".265" d="M.661 2.778H4.63v2.91H.661z"/><path d="M.794 3.44h3.704v2.116H.794z" fill="#e6e6e6"/><path d="M.794 2.91h3.704v.794H.794z" fill="#bad9ec"/><path d="M1.323 3.307h.794" overflow="visible" fill="none" stroke="#6e97c4" stroke-width=".265"/><path d="M2.646 3.307h1.323" fill="none" stroke="#6e97c4" stroke-width=".265"/><path d="M1.323 4.101h.794" overflow="visible" fill="none" stroke="#6e97c4" stroke-width=".265"/><path d="M2.646 4.101h1.323" fill="none" stroke="#6e97c4" stroke-width=".265"/><path d="M1.323 4.63h.794" overflow="visible" fill="none" stroke="#6e97c4" stroke-width=".265"/><path d="M2.646 4.63h1.323" fill="none" stroke="#6e97c4" stroke-width=".265"/><path d="M1.323 5.16h.794" overflow="visible" fill="none" stroke="#6e97c4" stroke-width=".265"/><path d="M2.646 5.16h1.323" fill="none" stroke="#6e97c4" stroke-width=".265"/></svg>
